images/icons/square.svg

<svg fill="none" height="24" viewBox="0 0 24 24" width="24" xmlns="http://www.w3.org/2000/svg" xmlns:xlink="http://www.w3.org/1999/xlink"><clipPath id="a"><path d="m0 0h24v24h-24z"/></clipPath><g clip-path="url(#a)" fill="#fff"><path clip-rule="evenodd" d="m4.01009.00000017h15.97861c1.0637-.00030853 2.0841.42204483 2.8363 1.17411983.7523.75207 1.175 1.77222 1.175 2.83597v15.97741c0 2.2154-1.796 4.0113-4.0113 4.0113h-15.97861c-2.2149-.0007-4.01009-1.7963-4.01009-4.0113v-15.97741c0-2.21472 1.79537-4.01008983 4.01009-4.01008983zm14.36361 19.63589983c.699 0 1.2657-.5667 1.2657-1.2657l-.0035-12.74048c0-.69901-.5667-1.26567-1.2657-1.26567h-12.73932c-.33587 0-.65798.13351-.89537.37112s-.3706.55984-.37029.89571v12.73932c0 .699.56665 1.2657 1.26566 1.2657z" fill-rule="evenodd"/><path d="m9.44755 15.2532c-.39899-.0031-.72075-.3274-.72073-.7265v-5.08595c-.00093-.1933.0752-.37901.21157-.51602.13635-.13701.32169-.21404.51499-.21404h5.09302c.1932.00031.3783.07743.5146.21438.1363.13696.2125.32248.2119.51568v5.08475c.0006.1932-.0756.3788-.2119.5157-.1363.137-.3214.2141-.5146.2144z"/></g></svg>

<svg width="24" height="24" viewBox="0 0 24 24" fill="none" xmlns="http://www.w3.org/2000/svg">
<g clip-path="url(#clip0_1450_893)">
<path fill-rule="evenodd" clip-rule="evenodd" d="M4.01009 1.68918e-07H19.9887C21.0524 -0.000308362 22.0728 0.422045 22.825 1.17412C23.5773 1.92619 24 2.94634 24 4.01009V19.9875C24 22.2029 22.204 23.9988 19.9887 23.9988H4.01009C1.79519 23.9981 0 22.2025 0 19.9875V4.01009C0 1.79537 1.79537 1.68918e-07 4.01009 1.68918e-07ZM18.3737 19.6359C19.0727 19.6359 19.6394 19.0692 19.6394 18.3702L19.6359 5.62972C19.6359 4.93071 19.0692 4.36405 18.3702 4.36405H5.63088C5.29501 4.36405 4.9729 4.49756 4.73551 4.73517C4.49812 4.97278 4.36491 5.29501 4.36522 5.63088V18.3702C4.36522 19.0692 4.93187 19.6359 5.63088 19.6359H18.3737Z" fill="white"/>
<path d="M9.44755 15.2532C9.04856 15.2501 8.7268 14.9258 8.72682 14.5267V9.44075C8.72589 9.24745 8.80202 9.06174 8.93839 8.92473C9.07474 8.78772 9.26008 8.71069 9.45338 8.71069H14.5464C14.7396 8.711 14.9247 8.78812 15.061 8.92507C15.1973 9.06203 15.2735 9.24755 15.2729 9.44075V14.5255C15.2735 14.7187 15.1973 14.9043 15.061 15.0412C14.9247 15.1782 14.7396 15.2553 14.5464 15.2556L9.44755 15.2532Z" fill="white"/>
</g>
<defs>
<clipPath id="clip0_1450_893">
<rect width="24" height="24" fill="white"/>
</clipPath>
</defs>
</svg>
